public/assets/routes_avatar/roomTransactionFile.svg

<?xml version="1.0" encoding="UTF-8"?>
<svg width="60px" height="60px" viewBox="0 0 60 60" version="1.1" xmlns="http://www.w3.org/2000/svg" xmlns:xlink="http://www.w3.org/1999/xlink">
    <!-- Generator: Sketch 49.3 (51167) - http://www.bohemiancoding.com/sketch -->
    <title>业务报表-房间交易档案</title>
    <desc>Created with Sketch.</desc>
    <defs>
        <path d="M26.6946452,12.2127446 L15.0454441,0.603018446 C14.1876421,-0.201006149 12.8821552,-0.201006149 12.0243532,0.603018446 L0.372021479,12.2127446 C-0.0913168071,12.6439352 -0.125754112,13.379877 0.290624212,13.8596982 C0.707002537,14.3395193 1.42079395,14.3751817 1.88100157,13.9439911 L13.5333333,2.33426495 L25.1856651,13.9439911 C25.6490034,14.3751817 26.3596641,14.3395193 26.7760425,13.8596982 C27.1924208,13.379877 27.1579835,12.6439352 26.6946452,12.2127446 Z M23.5827651,16.5181666 C22.9597629,16.5181666 22.455726,17.0401342 22.455726,17.685299 L22.455726,26.665735 L17.9788763,26.665735 L17.9788763,18.8848519 C17.9788763,17.5945221 16.9708025,16.5505869 15.7247982,16.5505869 L11.3418685,16.5505869 C10.0958642,16.5505869 9.08779032,17.5945221 9.08779032,18.8848519 L9.08779032,26.665735 L4.61094066,26.665735 L4.61094066,17.685299 C4.61094066,17.0401342 4.10690374,16.5181666 3.48390159,16.5181666 C2.86089943,16.5181666 2.35686251,17.0401342 2.35686251,17.685299 L2.35686251,26.665735 C2.35686251,27.9560648 3.36493635,29 4.61094066,29 L22.455726,29 C23.7017303,29 24.7098042,27.9560648 24.7098042,26.665735 L24.7098042,17.685299 C24.7098042,17.0401342 24.2057672,16.5181666 23.5827651,16.5181666 Z M11.3418685,18.8848519 L15.7247982,18.8848519 L15.7247982,26.665735 L11.3418685,26.665735 L11.3418685,18.8848519 Z" id="path-1"></path>
        <path d="M21.6450886,23.8021521 C21.7489316,23.8832796 21.9173707,23.8832796 22.0212349,23.8021521 C22.125106,23.7210742 22.125106,23.58956 22.0212349,23.508427 L20.9080888,22.6391771 L25.7340145,22.6391771 C25.8808958,22.6391771 25.9999963,22.5461958 25.9999963,22.4314882 C25.9999963,22.3167916 25.8809099,22.2238103 25.7340145,22.2238103 L20.9080888,22.2238103 L22.0212349,21.3545659 C22.125106,21.2734494 22.125106,21.1419462 22.0212349,21.0608353 C21.9173637,20.9797243 21.7489597,20.9797188 21.6450886,21.0608353 L20.0779016,22.2846422 C20.0259414,22.3252059 20,22.3783333 20,22.4314992 C20,22.4846431 20.0259696,22.5378035 20.0779016,22.5783618 L21.6450886,23.8021687 L21.6450886,23.8021521 Z M25.9805104,25.490387 C25.9774166,25.4844161 25.9738858,25.4785663 25.9700591,25.4727935 C25.969897,25.4725183 25.969742,25.4722376 25.9695658,25.471968 C25.957402,25.4538626 25.9415596,25.4369019 25.9220877,25.4216857 L24.3548937,24.1978623 C24.2510155,24.1167459 24.0826115,24.1167459 23.9787403,24.1978623 C23.9267871,24.2384315 23.9008317,24.2915699 23.9008317,24.3447249 C23.9008317,24.3978688 23.9268153,24.4510402 23.9787403,24.4915874 L25.0918864,25.3608319 L20.2659677,25.3608319 C20.1190864,25.3608319 20.0000141,25.4538131 20.0000141,25.5685207 C20.0000141,25.6832174 20.1190864,25.7761986 20.2659677,25.7761986 L25.0918935,25.7761986 L23.9787333,26.6454431 C23.926773,26.6860068 23.9008246,26.7391342 23.9008246,26.7923001 C23.9008246,26.845444 23.9268083,26.898632 23.9787263,26.9391627 C24.0826045,27.0202791 24.2510084,27.0202791 24.3548796,26.9391627 L25.9220947,25.7153998 C25.9999963,25.6545955 26.0194823,25.565417 25.9805174,25.4903815 L25.9805104,25.490387 Z" id="path-2"></path>
    </defs>
    <g id="icon" stroke="none" stroke-width="1" fill="none" fill-rule="evenodd">
        <g id="业务报表-房间交易档案">
            <circle id="Oval-Copy" fill="#07D3CF" cx="30" cy="30" r="30"></circle>
            <g id="Group-62" transform="translate(15.000000, 15.000000)">
                <g id="Shape" fill-rule="nonzero">
                    <use fill="#FFFFFF" fill-rule="evenodd" xlink:href="#path-1"></use>
                    <path stroke="#06CDC9" stroke-width="0.3" d="M26.592457,12.3225515 L26.5887593,12.3189904 L14.9428641,0.712459514 C14.1427578,-0.0374865045 12.9270395,-0.0374865045 12.1302248,0.70927855 L0.474209715,12.3225515 C0.0709623285,12.6978205 0.0396658466,13.3416373 0.403915227,13.7613867 C0.763865313,14.1761817 1.37958802,14.2082363 1.77513,13.837731 L13.4274618,2.22800485 L13.6392049,2.22800485 L25.2878533,13.8341841 C25.6898164,14.2082579 26.3026917,14.1763081 26.6627514,13.7613867 C27.0270008,13.3416373 26.9957043,12.6978205 26.592457,12.3225515 Z M23.5827651,16.6681666 C23.0438016,16.6681666 22.605726,17.1218263 22.605726,17.685299 L22.605726,26.665735 L22.455726,26.815735 L17.9788763,26.815735 L17.8288763,26.665735 L17.8288763,18.8848519 C17.8288763,17.6762142 16.8867639,16.7005869 15.7247982,16.7005869 L11.3418685,16.7005869 C10.1799028,16.7005869 9.23779032,17.6762142 9.23779032,18.8848519 L9.23779032,26.665735 L9.08779032,26.815735 L4.61094066,26.815735 L4.46094066,26.665735 L4.46094066,17.685299 C4.46094066,17.1218263 4.02286509,16.6681666 3.48390159,16.6681666 C2.94493809,16.6681666 2.50686251,17.1218263 2.50686251,17.685299 L2.50686251,26.665735 C2.50686251,27.8743727 3.44897501,28.85 4.61094066,28.85 L22.455726,28.85 C23.6176917,28.85 24.5598042,27.8743727 24.5598042,26.665735 L24.5598042,17.685299 C24.5598042,17.1218263 24.1217286,16.6681666 23.5827651,16.6681666 Z M11.3418685,18.7348519 L15.7247982,18.7348519 L15.8747982,18.8848519 L15.8747982,26.665735 L15.7247982,26.815735 L11.3418685,26.815735 L11.1918685,26.665735 L11.1918685,18.8848519 L11.3418685,18.7348519 Z"></path>
                </g>
                <circle id="Oval" fill="#07D3CF" cx="22.5" cy="23.5" r="7.5"></circle>
                <circle id="Oval" stroke="#FFFFFF" stroke-width="1.5" fill="#07D3CF" cx="23" cy="24" r="6"></circle>
                <g id="Shape" stroke-linecap="round" stroke-linejoin="bevel" fill-rule="nonzero">
                    <use fill="#FFFFFF" fill-rule="evenodd" xlink:href="#path-2"></use>
                    <path stroke="#FFFFFF" stroke-width="0.3" d="M21.3438944,22.0738103 L25.7340145,22.0738103 C25.9567605,22.0738103 26.1499963,22.2246878 26.1499963,22.4314882 C26.1499963,22.6382941 25.9567534,22.7891771 25.7340145,22.7891771 L21.3438922,22.7891771 L22.1135699,23.3902143 C22.2943342,23.5314079 22.2943342,23.7792671 22.1135699,23.9203649 C21.9554425,24.0438769 21.7108487,24.0438769 21.5527419,23.9203557 L21.5527681,23.9203927 L19.9855744,22.6965806 C19.8996547,22.6294785 19.85,22.5338592 19.85,22.4314992 C19.85,22.329106 19.8996382,22.233511 19.9855812,22.1664181 L21.5527652,20.9426134 C21.7108906,20.8191281 21.9554253,20.8191306 22.1135543,20.9426104 C22.2943322,21.0837763 22.2943322,21.3316153 22.113555,21.4727902 L21.3438944,22.0738103 Z M24.6560835,25.9261986 L20.2659677,25.9261986 C20.0432339,25.9261986 19.8500141,25.7753171 19.8500141,25.5685207 C19.8500141,25.3617166 20.0432309,25.2108319 20.2659677,25.2108319 L24.6560808,25.2108319 L23.8864209,24.6098123 C23.8005013,24.5427193 23.7508317,24.4470857 23.7508317,24.3447249 C23.7508317,24.2423477 23.8004781,24.1467484 23.886417,24.0796405 C24.0445443,23.9561537 24.289079,23.9561537 24.4472147,24.0796386 L26.0144486,25.3034932 C26.045924,25.3280895 26.072754,25.3565815 26.0951386,25.3899224 C26.0960252,25.3913321 26.0966875,25.392385 26.0971993,25.3932014 C26.104449,25.4044746 26.105151,25.4057582 26.1136939,25.4213788 L26.1136388,25.4212534 C26.1876567,25.563791 26.1462673,25.7307098 26.0144121,25.8336263 L24.4472029,27.0573845 C24.2890756,27.1808713 24.0445409,27.1808713 23.8864224,27.0573997 C23.8004991,26.9903222 23.7508246,26.8946647 23.7508246,26.7923001 C23.7508246,26.689907 23.8004694,26.5943123 23.8864139,26.5272182 L24.6560835,25.9261986 Z"></path>
                </g>
            </g>
        </g>
    </g>
</svg>

<svg width="60" height="60" xmlns="http://www.w3.org/2000/svg" xmlns:xlink="http://www.w3.org/1999/xlink"><defs><path d="M26.695 12.213L15.045.603a2.193 2.193 0 0 0-3.02 0L.371 12.213a1.194 1.194 0 0 0-.081 1.647c.416.48 1.13.515 1.59.084l11.652-11.61 11.653 11.61a1.098 1.098 0 0 0 1.59-.084 1.194 1.194 0 0 0-.081-1.647zm-3.112 4.305c-.623 0-1.127.522-1.127 1.167v8.98h-4.477v-7.78c0-1.29-1.008-2.334-2.254-2.334h-4.383c-1.246 0-2.254 1.044-2.254 2.334v7.78H4.61v-8.98c0-.645-.504-1.167-1.127-1.167s-1.127.522-1.127 1.167v8.98C2.357 27.957 3.365 29 4.61 29h17.845c1.246 0 2.254-1.044 2.254-2.334v-8.98c0-.646-.504-1.168-1.127-1.168zm-12.241 2.367h4.383v7.78h-4.383v-7.78z" id="a"/><path d="M21.645 23.802a.321.321 0 0 0 .376 0c.104-.08.104-.212 0-.294l-1.113-.869h4.826c.147 0 .266-.093.266-.208 0-.114-.12-.207-.266-.207h-4.826l1.113-.87c.104-.08.104-.212 0-.293a.321.321 0 0 0-.376 0l-1.567 1.224a.187.187 0 0 0-.078.146c0 .054.026.107.078.147l1.567 1.224zm4.336 1.688a.191.191 0 0 0-.01-.017l-.001-.001a.22.22 0 0 0-.048-.05l-1.567-1.224a.321.321 0 0 0-.376 0 .187.187 0 0 0-.078.147c0 .053.026.106.078.147l1.113.869h-4.826c-.147 0-.266.093-.266.208 0 .114.12.207.266.207h4.826l-1.113.87a.187.187 0 0 0-.078.146c0 .053.026.107.078.147a.321.321 0 0 0 .376 0l1.567-1.224c.078-.06.097-.15.059-.225z" id="b"/></defs><g fill="none" fill-rule="evenodd"><circle fill="#07D3CF" cx="30" cy="30" r="30"/><g transform="translate(15 15)"><g fill-rule="nonzero"><use fill="#FFF" fill-rule="evenodd" xlink:href="#a"/><path stroke="#06CDC9" stroke-width=".3" d="M26.592 12.323l-.003-.004L14.943.712c-.8-.75-2.016-.75-2.813-.003L.474 12.323a1.044 1.044 0 0 0-.07 1.438.947.947 0 0 0 1.371.077l11.652-11.61h.212l11.649 11.606a.948.948 0 0 0 1.375-.073 1.044 1.044 0 0 0-.07-1.438zm-3.01 4.345c-.538 0-.976.454-.976 1.017v8.98l-.15.15h-4.477l-.15-.15v-7.78c0-1.209-.942-2.184-2.104-2.184h-4.383c-1.162 0-2.104.975-2.104 2.184v7.78l-.15.15H4.61l-.15-.15v-8.98c0-.563-.438-1.017-.977-1.017-.54 0-.977.454-.977 1.017v8.98c0 1.21.942 2.185 2.104 2.185h17.845c1.162 0 2.104-.976 2.104-2.184v-8.98c0-.564-.438-1.018-.977-1.018zm-12.24 2.067h4.383l.15.15v7.78l-.15.15h-4.383l-.15-.15v-7.78l.15-.15z"/></g><circle fill="#07D3CF" cx="22.5" cy="23.5" r="7.5"/><circle stroke="#FFF" stroke-width="1.5" fill="#07D3CF" cx="23" cy="24" r="6"/><g stroke-linecap="round" stroke-linejoin="bevel" fill-rule="nonzero"><use fill="#FFF" fill-rule="evenodd" xlink:href="#b"/><path stroke="#FFF" stroke-width=".3" d="M21.344 22.074h4.39c.223 0 .416.15.416.357s-.193.358-.416.358h-4.39l.77.601c.18.141.18.39 0 .53a.47.47 0 0 1-.561 0h0l-1.567-1.223a.337.337 0 0 1-.136-.266c0-.102.05-.197.136-.265l1.567-1.223a.47.47 0 0 1 .56 0c.181.14.181.389 0 .53l-.77.6zm3.312 3.852h-4.39c-.223 0-.416-.15-.416-.357s.193-.358.416-.358h4.39l-.77-.601a.337.337 0 0 1-.135-.265c0-.103.05-.198.135-.265a.47.47 0 0 1 .561 0l1.567 1.223a.372.372 0 0 1 .081.087l.002.003.017.028h0a.326.326 0 0 1-.1.413l-1.567 1.223a.47.47 0 0 1-.56 0 .337.337 0 0 1-.136-.265c0-.102.05-.198.135-.265l.77-.6z"/></g></g></g></svg>
